X: 1
T: Paul & Wendy Ridley
C: Donald Ridley
R: reel
Z: 2009 John Chambers <jc:trillian.mit.edu>
S: JPEG image from Mary Morrisson <Musicians:nyc.rr.com> 2009-4-1
M: C|
L: 1/8
K: A
cB \
| "A"A2a2 "E7"efed | "A"c2A2 A2dc | "B7"B2b2 BcBA | "E7"G2E2 E2cB |
| "A"A2a2 "E7/B"efed | "A/C#"cdec "A7"dcBA | "D"F2A2 "E7"BAGF | "A"E2"D"[A2F2D2] "A"[A2E2C2] :|
|: GF \
| "A"E2A2 cdcB | "A"A2E2 E4 | "Bm"F2B2 dcBA | "E7"G2e2 e4 |
| "A"E2A2 cdcB | "A"Acea "D"fadf | "A"e2A2 "E7"BAGF | "A"E2"D"[A2F2D2] "A"[A2E2C2] :|
